X: 1
T: The Lammermuir Hills
T: 32S 3C x 8
P: Miss Wilma Miller
C: Muriel A. Johnstone
C: arr. T. Traub 4-27-03
M: 4/4
L: 1/8
K: D
A|"D" D2 a>g fB|"D"A<F"A"F>E "D7"D3 C|"G"B,>D GD F<A|"Em"G<EG>F "A7"E2 A2|"D" D2 a>g fB|
"D"A<F"A"F>E "Bm"D3 C|"G"B,>D Ge "D"d2-d|| e|"D"f>d"Em"g>e "D"a>f"G"b>g|"D" (3 afd A>f "A"e4|
"D"f>d"Em" (3 gfe "D"a2 "G"bd|"A"A<df>e "D"d3 g|"D"f>d"Em"g>e "D"a2 fd|"Em"B<e"E7"e>d "A"c>BA>G|"D" (3 FAd a>g f<dA>F|"Em"G<g "A"f>e "D"d2 |]
